X:517
T: "Der Schiffer"
N: Z1197
O: Europa, Mitteleuropa, Steiermark
N: Die letzten 4 Takte werden auf die Silbe 'la' gesungen.
R: Liebes - Lied
M: 3/4
L: 1/16
K: G
D4 | B2D2G4B4 | d2e2d4
D4 | B2d2g4B4 | d8
d4 | c2D2F2A2d2c2 | B2d2G4
B4 | A2F2D2c2B2A2 | G8
ded2 | c2a2a4ded2 | B2b2b4
ded2 | d2c2a2f2d2f2 | g8

